X:151
T:Piping Jig
B:NFID.185a
151piping_J
S:DOD
N:1:Cut time is notated in Part A only but is in fact continued "simile"
through the tune.
N:2:G's in source are natural - I have sharpened them.
L:1/8
M:6/8
R:jig
Q:320
K:Bm % dor
P:Part 1
e|f2B B>cA|B>ce f2a|e>ce fec|A>Bc e2f|
"5"a>cc B>cA|B>ce f2e|f>aa fae|f>ec B2:|
P:Part 2
z|"9"a2f aff|efa ^g2e|ece fec|ABc e2f|
"13"a2f aff|efa ^g2c|faa fae|fec B3|
"17"a2f aff|efa ^g2e|ece fec|ABc e2f|
"21"acc BcA|Bce f2e|faa fae|fec B2||
P:Part 3
f|"25"BcA B3|Bce f^ga|cAB c2B|c2A cef|
"29"BcA B3|Bce f2e|faa fae|fec B2:|
P:Part 4
f|"33"a2f eff|Bff f2e|faa eff|Aee e2c|
"37"a2f eff|Bff f2e|faa faf|fec B3|
"41"a2f eff|Bff f2e|faa eff|Aee e2c|
"45"B2B cBc|Bce f2e|faa fae|fec B3|]

%%%

